build/system/AdminOutline.svg

<svg xmlns="http://www.w3.org/2000/svg" fill="none" viewBox="0 0 24 24" focusable="false"><path d="M0 0H24V24H0z"/><path fill="#74767B" fill-rule="evenodd" d="M18.9445 6.87195C21.897 10.8703 21.0491 16.5051 17.0508 19.4576C13.0524 22.4102 7.4176 21.5623 4.46508 17.5639C1.51257 13.5656 2.3604 7.93078 6.35877 4.97827C10.3571 2.02575 15.9919 2.87359 18.9445 6.87195ZM16.2785 18.4119C19.6993 15.8858 20.4247 11.065 17.8987 7.64419C15.3727 4.22339 10.5518 3.49803 7.131 6.02405C4.66326 7.8463 3.59825 10.8628 4.14467 13.6864L6.3883 12.0297C6.39448 12.0251 6.42022 11.9996 6.42355 11.9374C6.50494 10.4164 7.24076 8.93956 8.56332 7.96294C10.1591 6.78458 12.1978 6.63709 13.8835 7.39737C14.3402 7.60336 14.5816 8.02559 14.5978 8.4556C14.6136 8.87291 14.4206 9.29026 14.0581 9.55795L11.5229 11.43C11.5007 11.4464 11.496 11.4777 11.5124 11.4999L12.3341 12.6127C12.3505 12.6349 12.3818 12.6396 12.404 12.6232L14.9391 10.7512C15.3016 10.4835 15.7573 10.4219 16.1515 10.5597C16.5577 10.7018 16.8902 11.0568 16.9526 11.5539C17.1831 13.3886 16.4422 15.2935 14.8465 16.4718C13.5239 17.4485 11.8958 17.7171 10.4182 17.3473C10.3577 17.3321 10.3258 17.3492 10.3196 17.3538L8.07579 19.0107C10.6137 20.3643 13.8105 20.2343 16.2785 18.4119ZM6.91699 18.2504L9.54741 16.308C9.90851 16.0414 10.3514 15.9904 10.7339 16.0862C11.8511 16.3658 13.0771 16.1624 14.0743 15.426C15.2454 14.5613 15.8075 13.177 15.6749 11.8239L13.1762 13.669C12.5764 14.1118 11.7312 13.9847 11.2883 13.3849L10.4666 12.2722C10.0237 11.6724 10.1509 10.8271 10.7507 10.3842L13.2494 8.5391C11.9952 8.01401 10.5067 8.14391 9.33556 9.00872C8.33843 9.74503 7.78323 10.8569 7.7217 12.0068C7.70063 12.4005 7.52162 12.8088 7.16053 13.0754L4.5302 15.0178C4.7718 15.6357 5.09787 16.2324 5.51086 16.7917C5.92366 17.3507 6.39775 17.8378 6.91699 18.2504Z"/></svg>

<svg xmlns="http://www.w3.org/2000/svg" fill="none" viewBox="0 0 24 24" focusable="false"><path fill="#74767B" fill-rule="evenodd" d="M18.94 6.87c2.95 4 2.1 9.63-1.89 12.58-4 2.96-9.64 2.11-12.59-1.89S2.36 7.93 6.35 4.97c4-2.95 9.64-2.1 12.59 1.9m-2.67 11.54c3.42-2.53 4.15-7.35 1.62-10.77A7.687 7.687 0 0 0 7.13 6.02a7.69 7.69 0 0 0-2.99 7.66l2.24-1.66c.01 0 .04-.03.04-.09.08-1.52.82-3 2.14-3.97a5.28 5.28 0 0 1 5.32-.57c.46.21.7.63.71 1.06.02.42-.17.84-.54 1.1l-2.53 1.88c-.02.01-.03.04-.01.06l.82 1.12c.02.02.05.02.07.01l2.53-1.87c.37-.27.82-.33 1.22-.2.4.15.74.5.8 1 .23 1.83-.51 3.74-2.11 4.92a5.3 5.3 0 0 1-4.43.87c-.06-.01-.09 0-.1.01l-2.24 1.66c2.54 1.35 5.74 1.22 8.2-.6m-9.36-.16 2.63-1.95c.36-.26.81-.31 1.19-.22a3.99 3.99 0 0 0 4.94-4.26l-2.5 1.84c-.6.45-1.44.32-1.89-.28l-.82-1.11c-.44-.6-.31-1.45.29-1.89l2.49-1.85A4 4 0 0 0 9.33 9a3.97 3.97 0 0 0-1.61 3c-.02.4-.2.8-.56 1.07l-2.63 1.94c.24.62.56 1.22.98 1.78.41.56.88 1.04 1.4 1.46"/></svg>
